apps/mobile/assets/icons/phosphor/text-aa.svg

<svg
  height="32"
  viewBox="0 0 256 256"
  width="32"
  xmlns="http://www.w3.org/2000/svg"
>
  <path
    d="m87.24 52.59a8 8 0 0 0 -14.48 0l-64 136a8 8 0 1 0 14.48 6.81l16.66-35.4h80.2l16.66 35.4a8 8 0 1 0 14.48-6.81zm-39.81 91.41 32.57-69.21 32.57 69.21zm152.57-48c-12.76 0-22.73 3.47-29.63 10.32a8 8 0 0 0 11.26 11.36c3.8-3.77 10-5.68 18.37-5.68 13.23 0 24 9 24 20v3.22a42.76 42.76 0 0 0 -24-7.22c-22.06 0-40 16.15-40 36s17.94 36 40 36a42.73 42.73 0 0 0 24-7.25 8 8 0 0 0 16-.75v-60c0-19.85-17.94-36-40-36zm0 88c-13.23 0-24-9-24-20s10.77-20 24-20 24 9 24 20-10.77 20-24 20z"
  />
</svg>

<svg xmlns="http://www.w3.org/2000/svg" width="32" height="32" fill="#000000" viewBox="0 0 256 256"><path d="M87.24,52.59a8,8,0,0,0-14.48,0l-64,136a8,8,0,1,0,14.48,6.81L39.9,160h80.2l16.66,35.4a8,8,0,1,0,14.48-6.81ZM47.43,144,80,74.79,112.57,144ZM200,96c-12.76,0-22.73,3.47-29.63,10.32a8,8,0,0,0,11.26,11.36c3.8-3.77,10-5.68,18.37-5.68,13.23,0,24,9,24,20v3.22A42.76,42.76,0,0,0,200,128c-22.06,0-40,16.15-40,36s17.94,36,40,36a42.73,42.73,0,0,0,24-7.25,8,8,0,0,0,16-.75V132C240,112.15,222.06,96,200,96Zm0,88c-13.23,0-24-9-24-20s10.77-20,24-20,24,9,24,20S213.23,184,200,184Z"></path></svg>
